dist/svg/resize-horizontal.svg

<!-- Generated by Trend Micro Style Portal -->
<svg version="1.1" xmlns="http://www.w3.org/2000/svg" width="16" height="16" viewBox="0 0 16 16">
  <title>resize-horizontal</title>
  <path fill="rgb(34,34,34)" d="M15 9h-6v4h2l-3 3-3-3h2v-4h-6v-2h6v-4h-2l3-3 3 3h-2v4h6z"></path>
</svg>

<svg width="16" height="16" viewBox="0 0 16 16" fill="rgb(34, 34, 34)" xmlns="http://www.w3.org/2000/svg"><title>resize-horizontal</title><path d="M15 9H9V13H11L8 16L5 13H7V9H1V7H7V3H5L8 0L11 3H9V7H15V9Z" fill="rgb(34, 34, 34)" fill-opacity="1.00"/></svg>
